public/livestock/money-blob.svg

<svg fill="none" height="350" viewBox="0 0 363 350" width="363" xmlns="http://www.w3.org/2000/svg"><path d="m281.983 28.8631c30.028 18.6627 53.111 50.0245 66.792 85.9469 13.612 35.852 17.821 76.264 8.069 113.941-9.752 37.676-33.467 72.616-65.6 94.225-32.134 21.54-72.687 29.818-109.661 24.907-36.975-4.911-70.371-23.012-99.5581-45.604-29.1166-22.592-53.9535-49.604-68.0558-82.579-14.10224-33.046-17.46995-71.985-8.77004-109.521 8.77004-37.6059 29.53764-73.7386 60.33814-92.1908 30.8005-18.382109 71.6338-19.01356 110.5728-16.34745 38.869 2.6661 75.844 8.55955 105.873 27.22235z" fill="#fdb98d"/><path d="m170.7 54.0248-8.475-8.4751-14.993 15.0025 10.9 10.8996h23.167v-28.0675l-10.599 10.5991z" fill="#016099"/><path d="m158.131 71.4521h-5.44v21.1983h28.607v-21.1983z" fill="#fffac2"/><path d="m204.465 71.4518 10.899-10.8996-14.992-15.0025-8.475 8.4751v-.0414l-10.599-10.5991v28.0675z" fill="#3d113c"/><path d="m204.465 71.4521h-23.167v21.1983h28.606v-21.1983z" fill="#00bcb4"/><path d="m269.439 152.184-59.534-59.5336h-28.606v64.2376h-.072v81.063h.072v48.892c16.373.022 32.588-3.193 47.714-9.459s28.864-15.459 40.426-27.052c13.011-13.018 20.32-30.669 20.32-49.074s-7.309-36.057-20.32-49.074z" fill="#3d113c"/><path d="m152.692 92.6606-59.5334 59.5234c-13.0145 13.017-20.3256 30.671-20.3256 49.079 0 18.407 7.3111 36.061 20.3256 49.079 11.5624 11.591 25.3004 20.783 40.4264 27.047s31.341 9.477 47.713 9.454v-194.1824z" fill="#016099"/><path d="m175.849 135.223v14.505c-4.698.685-9.249 2.145-13.469 4.321-4.1 2.107-7.769 4.964-10.816 8.423-3.117 3.584-5.528 7.725-7.108 12.205-1.757 5.037-2.62 10.342-2.549 15.676-.079 5.385.784 10.743 2.549 15.831 3.074 8.856 9.472 16.168 17.841 20.39 4.252 2.172 8.854 3.575 13.594 4.145v17.924h5.18v-118.331c-3.471.187-5.222 1.813-5.222 4.911zm0 81.571c-5.054-1.376-9.492-4.426-12.588-8.651-3.246-4.324-4.87-10.351-4.87-18.08 0-7.418 1.596-13.341 4.787-17.769 3.057-4.334 7.544-7.452 12.671-8.807z" fill="#fdb98d"/><path d="m186.975 230.843c5.091-.288 10.1-1.411 14.826-3.325 2.906-1.215 5.698-2.689 8.34-4.404-1.132-1.747-2.265-3.55-3.398-5.408l-3.398-5.564c-1.776 1.145-3.636 2.153-5.564 3.015-3.414 1.52-7.083 2.384-10.817 2.549v-55.14c4.946.414 8.886 1.547 11.822 3.398 2.177 1.287 4.221 2.786 6.102 4.476 1.574-1.148 2.846-2.658 3.71-4.404.731-1.358 1.152-2.862 1.233-4.403.055-1.386-.306-2.757-1.036-3.937-.722-1.082-1.606-2.047-2.622-2.86-1.964-1.256-4.046-2.318-6.216-3.17-2.991-1.285-7.315-2.083-12.972-2.393v-18.07c-1.686-.604-3.462-.916-5.253-.922-.238 0-.445 0-.673 0v118.331h5.926z" fill="#fc6719"/></svg>

<svg width="363" height="350" viewBox="0 0 363 350" fill="none" xmlns="http://www.w3.org/2000/svg">
<path d="M281.983 28.8631C312.011 47.5258 335.094 78.8876 348.775 114.81C362.387 150.662 366.596 191.074 356.844 228.751C347.092 266.427 323.377 301.367 291.244 322.976C259.11 344.516 218.557 352.794 181.583 347.883C144.608 342.972 111.212 324.871 82.0249 302.279C52.9083 279.687 28.0714 252.675 13.9691 219.7C-0.13314 186.654 -3.50085 147.715 5.19906 110.179C13.9691 72.5731 34.7367 36.4404 65.5372 17.9882C96.3377 -0.393909 137.171 -1.02536 176.11 1.64075C214.979 4.30685 251.954 10.2003 281.983 28.8631Z" fill="#FDB98D"/>
<path d="M170.7 54.0248L162.225 45.5497L147.232 60.5522L158.132 71.4518H181.299V43.3843L170.7 53.9834V54.0248Z" fill="#016099"/>
<path d="M158.131 71.4521H152.691V92.6504H181.298V71.4521H158.131Z" fill="#FFFAC2"/>
<path d="M204.465 71.4518L215.364 60.5522L200.372 45.5497L191.897 54.0248V53.9834L181.298 43.3843V71.4518H204.465Z" fill="#3D113C"/>
<path d="M204.465 71.4521H181.298V92.6504H209.904V71.4521H204.465Z" fill="#00BCB4"/>
<path d="M269.439 152.184L209.905 92.6504H181.299V156.888H181.227V237.951H181.299V286.843C197.672 286.865 213.887 283.65 229.013 277.384C244.139 271.118 257.877 261.925 269.439 250.332C282.45 237.314 289.759 219.663 289.759 201.258C289.759 182.853 282.45 165.201 269.439 152.184Z" fill="#3D113C"/>
<path d="M152.692 92.6606L93.1586 152.184C80.1441 165.201 72.833 182.855 72.833 201.263C72.833 219.67 80.1441 237.324 93.1586 250.342C104.721 261.933 118.459 271.125 133.585 277.389C148.711 283.653 164.926 286.866 181.298 286.843V92.6606H152.692Z" fill="#016099"/>
<path d="M175.849 135.223V149.728C171.151 150.413 166.6 151.873 162.38 154.049C158.28 156.156 154.611 159.013 151.564 162.472C148.447 166.056 146.036 170.197 144.456 174.677C142.699 179.714 141.836 185.019 141.907 190.353C141.828 195.738 142.691 201.096 144.456 206.184C147.53 215.04 153.928 222.352 162.297 226.574C166.549 228.746 171.151 230.149 175.891 230.719V248.643H181.071V130.312C177.6 130.499 175.849 132.125 175.849 135.223ZM175.849 216.794C170.795 215.418 166.357 212.368 163.261 208.143C160.015 203.819 158.391 197.792 158.391 190.063C158.391 182.645 159.987 176.722 163.178 172.294C166.235 167.96 170.722 164.842 175.849 163.487V216.794Z" fill="#FDB98D"/>
<path d="M186.975 230.843C192.066 230.555 197.075 229.432 201.801 227.518C204.707 226.303 207.499 224.829 210.141 223.114C209.009 221.367 207.876 219.564 206.743 217.706L203.345 212.142C201.569 213.287 199.709 214.295 197.781 215.157C194.367 216.677 190.698 217.541 186.964 217.706V162.566C191.91 162.98 195.85 164.113 198.786 165.964C200.963 167.251 203.007 168.75 204.888 170.44C206.462 169.292 207.734 167.782 208.598 166.036C209.329 164.678 209.75 163.174 209.831 161.633C209.886 160.247 209.525 158.876 208.795 157.696C208.073 156.614 207.189 155.649 206.173 154.836C204.209 153.58 202.127 152.518 199.957 151.666C196.966 150.381 192.642 149.583 186.985 149.273V131.203C185.299 130.599 183.523 130.287 181.732 130.281C181.494 130.281 181.287 130.281 181.059 130.281V248.612H186.985L186.975 230.843Z" fill="#FC6719"/>
</svg>
